dist/images/descr/Group6.svg

<svg width="46" height="48" viewBox="0 0 46 48" fill="none" xmlns="http://www.w3.org/2000/svg">
<path d="M42.5231 21.9084H30.4648C31.011 20.6542 31.243 19.2387 31.184 17.8432C32.6685 17.9249 34.0297 16.8319 34.0297 15.2683C34.0297 14.7285 33.8623 14.2272 33.5773 13.8128C34.0429 13.5039 34.3508 12.9757 34.3508 12.3762V11.1438C34.3508 10.1934 33.5777 9.42037 32.6274 9.42037H31.1839V5.06728C31.184 2.27316 28.9108 0 26.1167 0H18.9846C16.1904 0 13.9173 2.27316 13.9173 5.06728V9.42028H12.4737C11.5234 9.42028 10.7503 10.1934 10.7503 11.1437V12.3761C10.7503 12.9756 11.0583 13.5038 11.5238 13.8127C11.2388 14.2271 11.0715 14.7284 11.0715 15.2682C11.0715 16.7694 12.4013 17.9911 13.9172 17.8431C13.785 19.1629 14.1349 20.7458 14.6398 21.9083H2.57813C1.1565 21.9083 0 23.0648 0 24.4865V31.3883C0 32.81 1.1565 33.9665 2.57813 33.9665H5.35247C5.28834 34.2212 5.23978 34.48 5.20763 34.7415C4.87106 34.7308 4.53441 34.8207 4.24106 35.0094C3.76856 35.3135 3.48656 35.8264 3.48656 36.3815V38.5328H2.55422C1.92 38.5328 1.36134 38.983 1.22569 39.6032C0.993188 40.6665 0.886313 41.7559 0.908063 42.8411C0.926063 43.7407 1.03294 44.6431 1.22559 45.5234C1.36134 46.1437 1.92009 46.5938 2.55413 46.5938H3.48656V47.2969C3.48656 47.6852 3.80138 48 4.18969 48C4.578 48 4.89281 47.6852 4.89281 47.2969V46.5938H5.29228C6.58322 46.5938 7.6335 45.5435 7.6335 44.2525V40.8741C7.6335 39.5831 6.58322 38.5328 5.29228 38.5328H4.89291V36.3816C4.90228 36.1961 5.07206 36.0892 5.27494 36.1732L12.6676 39.5361V47.2969C12.6676 47.6852 12.9824 48 13.3707 48C13.759 48 14.0738 47.6852 14.0738 47.2969V39.5357L21.8476 35.9993V47.2969C21.8476 47.6852 22.1624 48 22.5507 48C22.939 48 23.2538 47.6852 23.2538 47.2969V35.9992C23.4266 36.0846 30.8423 39.446 31.028 39.5359V47.2969C31.028 47.6852 31.3428 48 31.7311 48C32.1194 48 32.4342 47.6852 32.4342 47.2969V39.5359L39.8268 36.1731C40.0334 36.0898 40.199 36.196 40.2085 36.3816V38.5329H39.8092C38.5182 38.5329 37.4679 39.5832 37.4679 40.8742V44.2526C37.4679 45.5436 38.5182 46.5938 39.8092 46.5938H40.2086V47.297C40.2086 47.6853 40.5234 48.0001 40.9118 48.0001C41.3001 48.0001 41.6149 47.6853 41.6149 47.297V46.5938H42.5473C43.1813 46.5938 43.7401 46.1437 43.8758 45.5235C44.0685 44.6431 44.1753 43.7407 44.1934 42.8412C44.2151 41.756 44.1083 40.6666 43.8758 39.6033C43.7401 38.9831 43.1814 38.5329 42.5472 38.5329H41.6149V36.3816C41.6149 35.8265 41.3328 35.3136 40.8604 35.0095C40.567 34.8208 40.2304 34.7308 39.8938 34.7415C39.8617 34.48 39.8131 34.2213 39.749 33.9666H42.5233C43.9449 33.9666 45.1014 32.8101 45.1014 31.3884V24.4866C45.1013 23.0649 43.9448 21.9084 42.5231 21.9084ZM3.87009 32.5603H2.57813C1.93191 32.5603 1.40625 32.0347 1.40625 31.3884V24.4866C1.40625 23.8403 1.93191 23.3147 2.57813 23.3147H3.87009V32.5603ZM5.29219 39.9392C5.80772 39.9392 6.22716 40.3586 6.22716 40.8742V44.2526C6.22716 44.7682 5.80772 45.1876 5.29219 45.1876H2.59163C2.42334 44.4078 2.32997 43.6091 2.31403 42.813C2.29463 41.8501 2.38809 40.8834 2.59172 39.9393H5.29219V39.9392ZM42.5095 39.9392C42.7132 40.8833 42.8065 41.8501 42.7872 42.813C42.7713 43.609 42.6778 44.4078 42.5096 45.1875H39.8091C39.2935 45.1875 38.8741 44.7681 38.8741 44.2525V40.8741C38.8741 40.3585 39.2935 39.9391 39.8091 39.9391H42.5095V39.9392ZM37.0125 23.3147V30.1724C36.3899 29.7757 35.6992 29.4863 34.9716 29.3264L28.0645 27.8085C27.5314 27.6917 27.1445 27.2106 27.1445 26.6644V25.7633C27.6851 25.4222 28.1929 25.0204 28.656 24.5573C29.0416 24.1717 29.3846 23.7551 29.686 23.3148H37.0125V23.3147ZM31.1841 16.4369V14.0996C31.9063 13.9894 32.6235 14.5112 32.6235 15.2682C32.6235 16.0115 31.9132 16.5521 31.1841 16.4369ZM15.3235 5.06728C15.3235 3.04856 16.9658 1.40625 18.9846 1.40625H26.1167C28.1354 1.40625 29.7777 3.04856 29.7777 5.06728V9.42028H15.3235V5.06728ZM13.9172 16.4369C13.1784 16.5263 12.4778 16.0436 12.4778 15.2683C12.4778 14.5145 13.1984 13.9918 13.9172 14.0997V16.4369ZM12.4737 12.6934C12.2988 12.6934 12.1566 12.5511 12.1566 12.3762V11.1438C12.1566 10.9688 12.2989 10.8266 12.4737 10.8266H32.6275C32.8025 10.8266 32.9447 10.9689 32.9447 11.1438V12.3762C32.9447 12.5512 32.8024 12.6934 32.6275 12.6934H20.8339C20.4456 12.6934 20.1308 13.0082 20.1308 13.3965C20.1308 13.7848 20.4456 14.0996 20.8339 14.0996H29.7778V18.4528C29.7788 20.3913 29.0168 22.2076 27.6616 23.5628C27.1933 24.0311 26.6711 24.4253 26.1104 24.7437C25.0223 25.3616 23.8415 25.68 22.5506 25.68C18.5656 25.68 15.3234 22.4378 15.3234 18.4528V14.0996H17.5526C17.9409 14.0996 18.2558 13.7848 18.2558 13.3965C18.2558 13.0082 17.9409 12.6934 17.5526 12.6934H12.4737ZM26.1577 28.0639L22.5506 31.6709L18.9436 28.0639C19.2439 27.6041 19.3883 27.0412 19.3631 26.4762C20.3498 26.8696 21.4253 27.0863 22.5506 27.0863C23.6602 27.0863 24.737 26.8763 25.7381 26.4789C25.69 27.0247 25.8702 27.6224 26.1577 28.0639ZM8.08875 23.3147H15.4201C16.0889 24.2925 16.9535 25.1262 17.9568 25.7593V26.6644C17.9568 27.2106 17.5699 27.6917 17.0362 27.8086L10.1296 29.3264C9.402 29.4863 8.71134 29.7757 8.08866 30.1724V23.3147H8.08875ZM5.89059 32.5603H5.27634V23.3147H6.68259V31.3917C6.37397 31.7508 6.10969 32.1435 5.89059 32.5603ZM13.3703 38.3108L6.57591 35.2201C6.70519 33.0471 8.28609 31.1715 10.4317 30.6998L14.6804 29.7661L20.1437 35.2294L13.3703 38.3108ZM31.731 38.3108L24.9577 35.2295L26.2861 33.901C26.5607 33.6264 26.5607 33.1812 26.2861 32.9067C26.0115 32.6321 25.5663 32.6321 25.2918 32.9067L23.5892 34.6093C22.9246 34.3302 22.1766 34.3302 21.512 34.6093L16.3106 29.408L17.3376 29.1823C17.5294 29.1403 17.7114 29.075 17.8838 28.993L21.9206 33.0299C22.0888 33.1982 22.3126 33.2909 22.5505 33.2909C22.7885 33.2909 23.0123 33.1982 23.1803 33.03L27.2172 28.993C27.3894 29.075 27.5713 29.1402 27.763 29.1822L28.7904 29.408L27.6341 30.5644C27.3595 30.839 27.3595 31.2842 27.6341 31.5587C27.9087 31.8333 28.3539 31.8333 28.6284 31.5587L30.4208 29.7663L34.6695 30.6999C36.8151 31.1716 38.396 33.0472 38.5253 35.2202L31.731 38.3108ZM39.8249 32.5603H39.2107C38.9919 32.1439 38.7269 31.7505 38.4188 31.3917V23.3147H39.825V32.5603H39.8249ZM43.695 31.3884C43.695 32.0347 43.1693 32.5603 42.5231 32.5603H41.2312V23.3147H42.5231C43.1693 23.3147 43.695 23.8403 43.695 24.4866V31.3884ZM26.3768 17.9352C26.7651 17.9352 27.0799 17.6204 27.0799 17.2321V15.7016C27.0799 15.3133 26.7651 14.9985 26.3768 14.9985C25.9884 14.9985 25.6736 15.3133 25.6736 15.7016V17.2321C25.6736 17.6204 25.9884 17.9352 26.3768 17.9352ZM18.0214 15.7016V17.2321C18.0214 17.6204 18.3362 17.9352 18.7245 17.9352C19.1128 17.9352 19.4276 17.6204 19.4276 17.2321V15.7016C19.4276 15.3133 19.1128 14.9985 18.7245 14.9985C18.3362 14.9985 18.0214 15.3133 18.0214 15.7016ZM20.682 22.3318C21.072 22.5457 21.7057 22.8025 22.5099 22.8109C23.3209 22.8194 24.0187 22.5515 24.4192 22.3318C24.7597 22.1451 24.8843 21.7177 24.6975 21.3772C24.5108 21.0367 24.0833 20.9122 23.7428 21.0988C23.4829 21.2414 23.0597 21.4105 22.5247 21.4047C22.0117 21.3993 21.6072 21.2354 21.3583 21.0988C21.0177 20.912 20.5904 21.0367 20.4037 21.3772C20.2169 21.7177 20.3416 22.1451 20.682 22.3318Z" fill="white"/>
</svg>

<svg width="46" height="48" fill="none" xmlns="http://www.w3.org/2000/svg"><path d="M42.523 21.908H30.465c.546-1.254.778-2.67.719-4.065 1.485.082 2.846-1.011 2.846-2.575a2.56 2.56 0 0 0-.453-1.455c.466-.31.774-.837.774-1.437v-1.232c0-.95-.773-1.724-1.724-1.724h-1.443V5.067A5.073 5.073 0 0 0 26.117 0h-7.132a5.073 5.073 0 0 0-5.068 5.067V9.42h-1.443c-.95 0-1.724.773-1.724 1.724v1.232c0 .6.308 1.128.774 1.437a2.56 2.56 0 0 0-.452 1.455c0 1.501 1.33 2.723 2.845 2.575-.132 1.32.218 2.903.723 4.065H2.578A2.581 2.581 0 0 0 0 24.486v6.902a2.581 2.581 0 0 0 2.578 2.579h2.774a6.345 6.345 0 0 0-.144.775 1.686 1.686 0 0 0-.967.267 1.628 1.628 0 0 0-.754 1.373v2.15h-.933c-.634 0-1.193.451-1.328 1.071a13.875 13.875 0 0 0 0 5.92c.135.62.694 1.07 1.328 1.07h.933v.704a.703.703 0 0 0 1.406 0v-.703h.4c1.29 0 2.34-1.05 2.34-2.342v-3.378a2.344 2.344 0 0 0-2.34-2.341h-.4v-2.151c.01-.186.18-.293.382-.209l7.393 3.363v7.76a.703.703 0 0 0 1.406 0v-7.76l7.774-3.537v11.298a.703.703 0 0 0 1.406 0V35.999c.173.086 7.588 3.447 7.774 3.537v7.76a.703.703 0 0 0 1.406 0v-7.76l7.393-3.363c.206-.083.372.023.382.209v2.15h-.4a2.344 2.344 0 0 0-2.341 2.342v3.379a2.344 2.344 0 0 0 2.341 2.34h.4v.704a.703.703 0 0 0 1.406 0v-.703h.932a1.37 1.37 0 0 0 1.329-1.07 13.88 13.88 0 0 0 0-5.92 1.369 1.369 0 0 0-1.329-1.071h-.932v-2.151c0-.555-.282-1.068-.755-1.372a1.685 1.685 0 0 0-.966-.268 6.34 6.34 0 0 0-.145-.775h2.774a2.581 2.581 0 0 0 2.578-2.579v-6.901a2.581 2.581 0 0 0-2.578-2.579ZM3.87 32.56H2.578a1.173 1.173 0 0 1-1.172-1.172v-6.901c0-.647.526-1.172 1.172-1.172H3.87v9.245Zm1.422 7.38c.516 0 .935.419.935.934v3.379c0 .515-.42.935-.935.935h-2.7a12.464 12.464 0 0 1 0-5.249h2.7Zm37.218 0a12.459 12.459 0 0 1 0 5.248h-2.7a.936.936 0 0 1-.936-.936v-3.378c0-.516.42-.935.935-.935h2.7Zm-5.497-16.625v6.857a6.331 6.331 0 0 0-2.041-.846l-6.908-1.518a1.178 1.178 0 0 1-.92-1.144v-.9a8.7 8.7 0 0 0 2.542-2.45h7.327Zm-5.829-6.878V14.1c.722-.11 1.44.411 1.44 1.168 0 .744-.71 1.284-1.44 1.169Zm-15.86-11.37a3.665 3.665 0 0 1 3.66-3.66h7.133a3.665 3.665 0 0 1 3.66 3.66V9.42H15.324V5.067Zm-1.407 11.37c-.739.09-1.44-.393-1.44-1.169 0-.754.721-1.276 1.44-1.168v2.337Zm-1.443-3.744a.317.317 0 0 1-.317-.317v-1.232c0-.175.142-.317.317-.317h20.153c.175 0 .318.142.318.317v1.232a.318.318 0 0 1-.318.317H20.834a.703.703 0 0 0 0 1.407h8.944v4.353a7.184 7.184 0 0 1-2.116 5.11c-.469.468-.99.862-1.552 1.18a7.078 7.078 0 0 1-3.56.937c-3.984 0-7.227-3.242-7.227-7.227V14.1h2.23a.703.703 0 1 0 0-1.407h-5.08Zm13.684 15.37-3.607 3.608-3.607-3.607c.3-.46.444-1.023.42-1.588.986.394 2.061.61 3.187.61 1.11 0 2.186-.21 3.187-.607-.048.546.132 1.143.42 1.585Zm-18.07-4.748h7.332a8.703 8.703 0 0 0 2.537 2.444v.905c0 .547-.387 1.028-.92 1.145l-6.907 1.517a6.34 6.34 0 0 0-2.041.846v-6.857ZM5.892 32.56h-.615v-9.245h1.407v8.077a6.254 6.254 0 0 0-.792 1.168Zm7.48 5.75-6.795-3.09c.13-2.173 1.71-4.048 3.856-4.52l4.248-.934 5.464 5.463-6.774 3.082Zm18.36 0-6.773-3.08 1.328-1.329a.703.703 0 1 0-.994-.994l-1.703 1.702a2.681 2.681 0 0 0-2.077 0l-5.201-5.201 1.027-.226c.191-.042.373-.107.546-.189l4.037 4.037a.885.885 0 0 0 .63.26.884.884 0 0 0 .63-.26l4.036-4.037c.172.082.354.147.546.19l1.027.225-1.156 1.156a.703.703 0 1 0 .994.995l1.793-1.793 4.248.934a4.954 4.954 0 0 1 3.856 4.52l-6.794 3.09Zm8.094-5.75h-.614a6.272 6.272 0 0 0-.792-1.168v-8.077h1.406v9.245Zm3.87-1.172c0 .647-.526 1.172-1.172 1.172h-1.292v-9.245h1.292c.646 0 1.172.525 1.172 1.172v6.901ZM26.377 17.935a.703.703 0 0 0 .703-.703v-1.53a.703.703 0 0 0-1.406 0v1.53c0 .388.314.703.703.703Zm-8.356-2.233v1.53a.703.703 0 0 0 1.407 0v-1.53a.703.703 0 0 0-1.407 0Zm2.661 6.63a3.91 3.91 0 0 0 1.828.479 4.015 4.015 0 0 0 1.91-.48.703.703 0 1 0-.677-1.232c-.26.142-.683.311-1.218.306a2.49 2.49 0 0 1-1.167-.306.703.703 0 1 0-.676 1.233Z" fill="#fff"/></svg>
